aliba_games/img/icon-paypal.svg

<svg width="17" height="16" viewBox="0 0 17 16" fill="none" xmlns="http://www.w3.org/2000/svg">
<g style="mix-blend-mode:luminosity">
<path d="M14.3996 4.13375C14.4267 3.91359 14.4409 3.68944 14.4409 3.46197C14.4409 1.55 12.8909 0 10.9789 0H5.19322C4.82928 0 4.51857 0.262812 4.45819 0.621687L2.32631 13.2928C2.24981 13.7475 2.60031 14.1618 3.06135 14.1618H5.17732C5.54125 14.1618 5.85782 13.8992 5.91816 13.5403C5.91816 13.5403 5.92169 13.5192 5.92807 13.4814H5.9281L5.63322 15.2341C5.56585 15.6348 5.87475 16 6.2811 16H8.13226C8.45304 16 8.72691 15.7683 8.7801 15.452L9.30601 12.3264C9.39666 11.7876 9.86313 11.3931 10.4095 11.3931H10.8958C13.5374 11.3931 15.6787 9.25166 15.6787 6.61013C15.6787 5.58797 15.1735 4.68444 14.3996 4.13375Z" fill="#0032A5"/>
<path d="M14.3995 4.13379C14.0685 6.82688 11.7732 8.91223 8.99061 8.91223H7.37607C7.01167 8.91223 6.69695 9.15495 6.59823 9.49813L5.63317 15.234C5.56576 15.6348 5.87467 16 6.28101 16H8.13217C8.45295 16 8.72682 15.7684 8.78001 15.4521L9.30592 12.3264C9.39657 11.7876 9.86304 11.3931 10.4094 11.3931H10.8957C13.5373 11.3931 15.6786 9.2517 15.6786 6.61016C15.6786 5.58801 15.1734 4.68448 14.3995 4.13379Z" fill="#0085CC"/>
<path d="M7.37614 8.91199H8.99067C11.7733 8.91199 14.0686 6.82665 14.3996 4.13359C13.9031 3.78028 13.2964 3.57178 12.6405 3.57178H8.42649C7.9467 3.57178 7.53705 3.91825 7.45742 4.39137L6.59827 9.49786C6.69699 9.15468 7.01174 8.91199 7.37614 8.91199Z" fill="#001E82"/>
</g>
</svg>

<svg width="17" height="16" fill="none" xmlns="http://www.w3.org/2000/svg"><g style="mix-blend-mode:luminosity"><path d="M14.4 4.134c.027-.22.04-.445.04-.672A3.462 3.462 0 0 0 10.98 0H5.193a.745.745 0 0 0-.735.622l-2.132 12.67a.745.745 0 0 0 .735.87h2.116c.364 0 .68-.263.741-.622l.01-.059-.295 1.753c-.067.4.242.766.648.766h1.851c.321 0 .595-.232.648-.548l.526-3.126c.09-.538.557-.933 1.104-.933h.486a4.783 4.783 0 0 0 4.783-4.783 3.033 3.033 0 0 0-1.28-2.476z" fill="#0032A5"/><path d="M14.4 4.134a5.45 5.45 0 0 1-5.41 4.778H7.377a.81.81 0 0 0-.778.586l-.965 5.736c-.067.4.242.766.648.766h1.851c.32 0 .595-.232.648-.548l.526-3.126c.09-.538.557-.933 1.103-.933h.487a4.783 4.783 0 0 0 4.783-4.783 3.033 3.033 0 0 0-1.28-2.476z" fill="#0085CC"/><path d="M7.376 8.912h1.615A5.45 5.45 0 0 0 14.4 4.134a3.023 3.023 0 0 0-1.76-.562H8.426c-.48 0-.889.346-.969.82l-.859 5.106a.81.81 0 0 1 .778-.586z" fill="#001E82"/></g></svg>
